app/clientComponent/section5_experience/images/experience.svg

<svg width="256" height="55" viewBox="0 0 256 55" fill="none" xmlns="http://www.w3.org/2000/svg">
<path d="M27.34 28.64C27.34 28.56 27.42 28.52 27.58 28.52C27.7 28.52 27.8 28.56 27.88 28.64C28 28.68 28.06 28.72 28.06 28.76C27.66 31.8 27.46 34.58 27.46 37.1C27.46 37.42 27.4 37.66 27.28 37.82C27.16 37.94 26.92 38 26.56 38H0.52C0.4 38 0.34 37.88 0.34 37.64C0.34 37.4 0.4 37.28 0.52 37.28C1.88 37.28 2.86 37.18 3.46 36.98C4.1 36.78 4.52 36.4 4.72 35.84C4.96 35.24 5.08 34.34 5.08 33.14V5.36C5.08 4.16 4.96 3.28 4.72 2.72C4.52 2.16 4.1 1.78 3.46 1.58C2.82 1.34 1.84 1.22 0.52 1.22C0.4 1.22 0.34 1.1 0.34 0.859999C0.34 0.62 0.4 0.5 0.52 0.5H25.48C25.88 0.5 26.08 0.679999 26.08 1.04L26.2 8.84C26.2 8.92 26.08 8.98 25.84 9.02C25.64 9.06 25.52 9.02 25.48 8.9C24.52 4.34 21.74 2.06 17.14 2.06H14.74C13.3 2.06 12.28 2.32 11.68 2.84C11.08 3.36 10.78 4.24 10.78 5.48V17.72H16.54C20.94 17.72 23.14 16.24 23.14 13.28C23.14 13.16 23.24 13.1 23.44 13.1C23.68 13.1 23.8 13.16 23.8 13.28L23.74 18.5L23.8 21.32C23.88 22.6 23.92 23.64 23.92 24.44C23.92 24.52 23.8 24.56 23.56 24.56C23.32 24.56 23.2 24.52 23.2 24.44C23.2 21 20.96 19.28 16.48 19.28H10.78V32.9C10.78 34.22 11.02 35.14 11.5 35.66C12.02 36.18 12.92 36.44 14.2 36.44H17.14C22.5 36.44 25.9 33.84 27.34 28.64ZM56.7925 37.28C56.9125 37.28 56.9725 37.4 56.9725 37.64C56.9725 37.88 56.9125 38 56.7925 38L54.6925 37.94C54.2125 37.9 53.5125 37.88 52.5925 37.88L48.4525 37.94C47.8525 37.98 47.0125 38 45.9325 38C45.8125 38 45.7525 37.88 45.7525 37.64C45.7525 37.4 45.8125 37.28 45.9325 37.28C46.9725 37.28 47.4925 37 47.4925 36.44C47.4925 36.12 47.2725 35.62 46.8325 34.94L42.6925 28.7L40.1125 32.48C39.2325 33.72 38.7925 34.76 38.7925 35.6C38.7925 36.72 39.7525 37.28 41.6725 37.28C41.7925 37.28 41.8525 37.4 41.8525 37.64C41.8525 37.88 41.7925 38 41.6725 38C40.5925 38 39.7925 37.98 39.2725 37.94L35.6725 37.88L33.2725 37.94C32.8725 37.98 32.1925 38 31.2325 38C31.1125 38 31.0525 37.88 31.0525 37.64C31.0525 37.4 31.1125 37.28 31.2325 37.28C32.3925 37.28 33.6325 36.82 34.9525 35.9C36.3125 34.98 37.5925 33.7 38.7925 32.06L41.9725 27.68L36.7525 19.82C35.8725 18.46 34.9925 17.42 34.1125 16.7C33.2325 15.94 32.4325 15.56 31.7125 15.56C31.6325 15.56 31.5925 15.44 31.5925 15.2C31.5925 14.96 31.6325 14.84 31.7125 14.84C32.5525 14.84 33.1725 14.86 33.5725 14.9L35.4325 14.96L39.4525 14.9C40.0925 14.86 40.9725 14.84 42.0925 14.84C42.1725 14.84 42.2125 14.96 42.2125 15.2C42.2125 15.44 42.1725 15.56 42.0925 15.56C41.0525 15.56 40.5325 15.84 40.5325 16.4C40.5325 16.8 40.7525 17.3 41.1925 17.9L44.9125 23.54L47.0125 20.36C47.9325 19 48.3925 17.96 48.3925 17.24C48.3925 16.12 47.4125 15.56 45.4525 15.56C45.3725 15.56 45.3325 15.44 45.3325 15.2C45.3325 14.96 45.3725 14.84 45.4525 14.84C46.5325 14.84 47.3525 14.86 47.9125 14.9L51.5125 14.96L53.9125 14.9C54.3125 14.86 54.9925 14.84 55.9525 14.84C56.0725 14.84 56.1325 14.96 56.1325 15.2C56.1325 15.44 56.0725 15.56 55.9525 15.56C54.7925 15.56 53.5325 16.02 52.1725 16.94C50.8525 17.86 49.5925 19.14 48.3925 20.78L45.5725 24.56L51.2125 33.02C52.1725 34.46 53.1525 35.54 54.1525 36.26C55.1525 36.94 56.0325 37.28 56.7925 37.28ZM72.8383 38.78C70.9183 38.78 69.0583 38.48 67.2583 37.88V49.64C67.2583 50.84 67.3983 51.72 67.6783 52.28C67.9583 52.84 68.4783 53.22 69.2383 53.42C69.9983 53.66 71.1983 53.78 72.8383 53.78C72.9183 53.78 72.9583 53.9 72.9583 54.14C72.9583 54.38 72.9183 54.5 72.8383 54.5C71.3983 54.5 70.2783 54.48 69.4783 54.44L64.7983 54.38L61.3783 54.44C60.7783 54.48 59.9583 54.5 58.9183 54.5C58.7983 54.5 58.7383 54.38 58.7383 54.14C58.7383 53.9 58.7983 53.78 58.9183 53.78C59.9183 53.78 60.6583 53.66 61.1383 53.42C61.6183 53.22 61.9383 52.84 62.0983 52.28C62.2983 51.72 62.3983 50.84 62.3983 49.64V21.74C62.3983 20.42 62.2383 19.46 61.9183 18.86C61.6383 18.26 61.1383 17.96 60.4183 17.96C59.7383 17.96 58.7783 18.24 57.5383 18.8H57.4183C57.2583 18.8 57.1383 18.72 57.0583 18.56C56.9783 18.36 56.9783 18.22 57.0583 18.14L64.9783 14.36C65.0583 14.32 65.1783 14.3 65.3383 14.3C65.7783 14.3 66.1783 14.68 66.5383 15.44C66.8983 16.16 67.1183 17.16 67.1983 18.44C70.2783 15.52 73.3983 14.06 76.5583 14.06C78.2383 14.06 79.7983 14.5 81.2383 15.38C82.6783 16.26 83.8183 17.54 84.6583 19.22C85.5383 20.9 85.9783 22.86 85.9783 25.1C85.9783 28.26 85.2983 30.86 83.9383 32.9C82.6183 34.94 80.9583 36.44 78.9583 37.4C76.9583 38.32 74.9183 38.78 72.8383 38.78ZM73.0783 17.06C71.0383 17.06 69.0983 17.92 67.2583 19.64V19.76V34.1C68.2183 35.14 69.2183 35.94 70.2583 36.5C71.3383 37.06 72.6383 37.34 74.1583 37.34C76.1583 37.34 77.7383 36.48 78.8983 34.76C80.0583 33 80.6383 30.4 80.6383 26.96C80.6383 23.8 79.9183 21.36 78.4783 19.64C77.0383 17.92 75.2383 17.06 73.0783 17.06ZM110.681 34.22C110.761 34.22 110.841 34.3 110.921 34.46C111.041 34.62 111.061 34.74 110.981 34.82C109.501 36.18 108.021 37.18 106.541 37.82C105.061 38.42 103.461 38.72 101.741 38.72C99.3014 38.72 97.1814 38.18 95.3814 37.1C93.6214 36.02 92.2614 34.6 91.3014 32.84C90.3814 31.08 89.9214 29.18 89.9214 27.14C89.9214 24.78 90.5014 22.62 91.6614 20.66C92.8214 18.7 94.4014 17.16 96.4014 16.04C98.4414 14.88 100.701 14.3 103.181 14.3C105.581 14.3 107.441 14.88 108.761 16.04C110.081 17.2 110.741 18.92 110.741 21.2C110.741 22.36 110.501 22.94 110.021 22.94L95.3814 23C95.3414 23.36 95.3214 23.9 95.3214 24.62C95.3214 28.14 96.1214 30.94 97.7214 33.02C99.3614 35.06 101.681 36.08 104.681 36.08C105.801 36.08 106.741 35.96 107.501 35.72C108.261 35.44 109.281 34.96 110.561 34.28L110.681 34.22ZM101.021 15.5C99.5414 15.5 98.3214 16.08 97.3614 17.24C96.4414 18.36 95.8214 19.92 95.5014 21.92L105.101 21.74C105.021 17.58 103.661 15.5 101.021 15.5ZM130.304 14.24C131.224 14.24 132.104 14.54 132.944 15.14C133.784 15.74 134.204 16.46 134.204 17.3C134.204 18.06 133.964 18.68 133.484 19.16C133.044 19.64 132.424 19.88 131.624 19.88C131.104 19.88 130.664 19.78 130.304 19.58C129.984 19.34 129.644 19.02 129.284 18.62C128.924 18.26 128.604 18 128.324 17.84C128.044 17.64 127.704 17.54 127.304 17.54C126.864 17.54 126.384 17.72 125.864 18.08C125.384 18.4 124.624 19.1 123.584 20.18V33.14C123.584 34.26 123.744 35.12 124.064 35.72C124.384 36.28 124.924 36.68 125.684 36.92C126.444 37.16 127.564 37.28 129.044 37.28C129.204 37.28 129.284 37.4 129.284 37.64C129.284 37.88 129.204 38 129.044 38C127.724 38 126.664 37.98 125.864 37.94L121.124 37.88L117.644 37.94C117.084 37.98 116.304 38 115.304 38C115.184 38 115.124 37.88 115.124 37.64C115.124 37.4 115.184 37.28 115.304 37.28C116.664 37.28 117.564 37 118.004 36.44C118.444 35.88 118.664 34.78 118.664 33.14V21.68C118.664 20.4 118.504 19.46 118.184 18.86C117.904 18.26 117.424 17.96 116.744 17.96C116.144 17.96 115.144 18.26 113.744 18.86H113.684C113.524 18.86 113.404 18.76 113.324 18.56C113.244 18.36 113.264 18.24 113.384 18.2L121.244 14.36C121.484 14.28 121.624 14.24 121.664 14.24C122.064 14.24 122.464 14.68 122.864 15.56C123.264 16.4 123.504 17.52 123.584 18.92C125.144 17.16 126.444 15.94 127.484 15.26C128.524 14.58 129.464 14.24 130.304 14.24ZM143.445 7.94C142.405 7.94 141.585 7.66 140.985 7.1C140.425 6.54 140.145 5.74 140.145 4.7C140.145 3.7 140.425 2.94 140.985 2.42C141.585 1.86 142.405 1.58 143.445 1.58C144.445 1.58 145.225 1.86 145.785 2.42C146.345 2.94 146.625 3.7 146.625 4.7C146.625 5.74 146.345 6.54 145.785 7.1C145.265 7.66 144.485 7.94 143.445 7.94ZM137.925 38C137.805 38 137.745 37.88 137.745 37.64C137.745 37.4 137.805 37.28 137.925 37.28C139.285 37.28 140.185 37 140.625 36.44C141.065 35.88 141.285 34.78 141.285 33.14V22.22C141.285 20.86 141.145 19.88 140.865 19.28C140.585 18.64 140.105 18.32 139.425 18.32C138.825 18.32 138.045 18.56 137.085 19.04H137.025C136.865 19.04 136.745 18.94 136.665 18.74C136.585 18.54 136.605 18.4 136.725 18.32L145.365 14.3L145.545 14.24C145.705 14.24 145.865 14.34 146.025 14.54C146.225 14.7 146.325 14.84 146.325 14.96V16.22C146.245 17.9 146.205 19.88 146.205 22.16V33.14C146.205 34.78 146.425 35.88 146.865 36.44C147.345 37 148.265 37.28 149.625 37.28C149.745 37.28 149.805 37.4 149.805 37.64C149.805 37.88 149.745 38 149.625 38C148.625 38 147.825 37.98 147.225 37.94L143.745 37.88L140.265 37.94C139.705 37.98 138.925 38 137.925 38ZM173.963 34.22C174.043 34.22 174.123 34.3 174.203 34.46C174.323 34.62 174.343 34.74 174.263 34.82C172.783 36.18 171.303 37.18 169.823 37.82C168.343 38.42 166.743 38.72 165.023 38.72C162.583 38.72 160.463 38.18 158.663 37.1C156.903 36.02 155.543 34.6 154.583 32.84C153.663 31.08 153.203 29.18 153.203 27.14C153.203 24.78 153.783 22.62 154.943 20.66C156.103 18.7 157.683 17.16 159.683 16.04C161.723 14.88 163.983 14.3 166.463 14.3C168.863 14.3 170.723 14.88 172.043 16.04C173.363 17.2 174.023 18.92 174.023 21.2C174.023 22.36 173.783 22.94 173.303 22.94L158.663 23C158.623 23.36 158.603 23.9 158.603 24.62C158.603 28.14 159.403 30.94 161.003 33.02C162.643 35.06 164.963 36.08 167.963 36.08C169.083 36.08 170.023 35.96 170.783 35.72C171.543 35.44 172.563 34.96 173.843 34.28L173.963 34.22ZM164.303 15.5C162.823 15.5 161.603 16.08 160.643 17.24C159.723 18.36 159.103 19.92 158.783 21.92L168.383 21.74C168.303 17.58 166.943 15.5 164.303 15.5ZM206.365 37.28C206.485 37.28 206.545 37.4 206.545 37.64C206.545 37.88 206.485 38 206.365 38C205.365 38 204.585 37.98 204.025 37.94L200.545 37.88L197.125 37.94C196.525 37.98 195.725 38 194.725 38C194.605 38 194.545 37.88 194.545 37.64C194.545 37.4 194.605 37.28 194.725 37.28C196.085 37.28 196.985 37 197.425 36.44C197.865 35.88 198.085 34.78 198.085 33.14V24.14C198.085 21.9 197.665 20.26 196.825 19.22C196.025 18.14 194.745 17.6 192.985 17.6C191.945 17.6 190.885 17.84 189.805 18.32C188.725 18.8 187.745 19.44 186.865 20.24V33.14C186.865 34.78 187.085 35.88 187.525 36.44C187.965 37 188.865 37.28 190.225 37.28C190.345 37.28 190.405 37.4 190.405 37.64C190.405 37.88 190.345 38 190.225 38C189.225 38 188.445 37.98 187.885 37.94L184.405 37.88L180.925 37.94C180.365 37.98 179.585 38 178.585 38C178.465 38 178.405 37.88 178.405 37.64C178.405 37.4 178.465 37.28 178.585 37.28C179.945 37.28 180.845 37 181.285 36.44C181.725 35.88 181.945 34.78 181.945 33.14V21.68C181.945 20.4 181.785 19.46 181.465 18.86C181.185 18.26 180.705 17.96 180.025 17.96C179.425 17.96 178.425 18.26 177.025 18.86H176.965C176.805 18.86 176.685 18.76 176.605 18.56C176.525 18.36 176.545 18.24 176.665 18.2L184.525 14.36C184.765 14.28 184.905 14.24 184.945 14.24C185.345 14.24 185.745 14.7 186.145 15.62C186.585 16.5 186.825 17.66 186.865 19.1C189.665 15.78 192.705 14.12 195.985 14.12C198.185 14.12 199.905 14.8 201.145 16.16C202.385 17.48 203.005 19.28 203.005 21.56V33.14C203.005 34.78 203.225 35.88 203.665 36.44C204.105 37 205.005 37.28 206.365 37.28ZM221.511 38.72C218.911 38.72 216.691 38.16 214.851 37.04C213.051 35.88 211.711 34.4 210.831 32.6C209.951 30.76 209.511 28.84 209.511 26.84C209.511 24.32 210.191 22.12 211.551 20.24C212.911 18.32 214.651 16.86 216.771 15.86C218.931 14.82 221.111 14.3 223.311 14.3C225.191 14.3 226.891 14.68 228.411 15.44C229.931 16.2 230.691 17.22 230.691 18.5C230.691 19.18 230.431 19.78 229.911 20.3C229.391 20.78 228.671 21.02 227.751 21.02C226.231 21.02 225.131 20.12 224.451 18.32C224.051 17.32 223.631 16.62 223.191 16.22C222.751 15.78 222.051 15.56 221.091 15.56C219.211 15.56 217.711 16.42 216.591 18.14C215.511 19.82 214.971 22.08 214.971 24.92C214.971 28.24 215.731 30.94 217.251 33.02C218.811 35.06 221.231 36.08 224.511 36.08C225.631 36.08 226.631 35.94 227.511 35.66C228.391 35.38 229.351 34.94 230.391 34.34H230.451C230.571 34.34 230.671 34.4 230.751 34.52C230.871 34.64 230.891 34.74 230.811 34.82C229.331 36.14 227.871 37.12 226.431 37.76C224.991 38.4 223.351 38.72 221.511 38.72ZM255.115 34.22C255.195 34.22 255.275 34.3 255.355 34.46C255.475 34.62 255.495 34.74 255.415 34.82C253.935 36.18 252.455 37.18 250.975 37.82C249.495 38.42 247.895 38.72 246.175 38.72C243.735 38.72 241.615 38.18 239.815 37.1C238.055 36.02 236.695 34.6 235.735 32.84C234.815 31.08 234.355 29.18 234.355 27.14C234.355 24.78 234.935 22.62 236.095 20.66C237.255 18.7 238.835 17.16 240.835 16.04C242.875 14.88 245.135 14.3 247.615 14.3C250.015 14.3 251.875 14.88 253.195 16.04C254.515 17.2 255.175 18.92 255.175 21.2C255.175 22.36 254.935 22.94 254.455 22.94L239.815 23C239.775 23.36 239.755 23.9 239.755 24.62C239.755 28.14 240.555 30.94 242.155 33.02C243.795 35.06 246.115 36.08 249.115 36.08C250.235 36.08 251.175 35.96 251.935 35.72C252.695 35.44 253.715 34.96 254.995 34.28L255.115 34.22ZM245.455 15.5C243.975 15.5 242.755 16.08 241.795 17.24C240.875 18.36 240.255 19.92 239.935 21.92L249.535 21.74C249.455 17.58 248.095 15.5 245.455 15.5Z" fill="#4971FF"/>
</svg>

<svg xmlns="http://www.w3.org/2000/svg" width="256" height="55" fill="none" xmlns:v="https://vecta.io/nano"><path d="M27.34 28.64c0-.08.08-.12.24-.12.12 0 .22.04.3.12.12.04.18.08.18.12-.4 3.04-.6 5.82-.6 8.34 0 .32-.06.56-.18.72-.12.12-.36.18-.72.18H.52c-.12 0-.18-.12-.18-.36s.06-.36.18-.36c1.36 0 2.34-.1 2.94-.3.64-.2 1.06-.58 1.26-1.14.24-.6.36-1.5.36-2.7V5.36c0-1.2-.12-2.08-.36-2.64-.2-.56-.62-.94-1.26-1.14-.64-.24-1.62-.36-2.94-.36C.4 1.22.34 1.1.34.86S.4.5.52.5h24.96c.4 0 .6.18.6.54l.12 7.8c0 .08-.12.14-.36.18-.2.04-.32 0-.36-.12-.96-4.56-3.74-6.84-8.34-6.84h-2.4c-1.44 0-2.46.26-3.06.78s-.9 1.4-.9 2.64v12.24h5.76c4.4 0 6.6-1.48 6.6-4.44 0-.12.1-.18.3-.18.24 0 .36.06.36.18l-.06 5.22.06 2.82c.08 1.28.12 2.32.12 3.12 0 .08-.12.12-.36.12s-.36-.04-.36-.12c0-3.44-2.24-5.16-6.72-5.16h-5.7V32.9c0 1.32.24 2.24.72 2.76.52.52 1.42.78 2.7.78h2.94c5.36 0 8.76-2.6 10.2-7.8zm29.452 8.64c.12 0 .18.12.18.36s-.06.36-.18.36l-2.1-.06c-.48-.04-1.18-.06-2.1-.06l-4.14.06c-.6.04-1.44.06-2.52.06-.12 0-.18-.12-.18-.36s.06-.36.18-.36c1.04 0 1.56-.28 1.56-.84 0-.32-.22-.82-.66-1.5l-4.14-6.24-2.58 3.78c-.88 1.24-1.32 2.28-1.32 3.12 0 1.12.96 1.68 2.88 1.68.12 0 .18.12.18.36s-.06.36-.18.36c-1.08 0-1.88-.02-2.4-.06l-3.6-.06-2.4.06c-.4.04-1.08.06-2.04.06-.12 0-.18-.12-.18-.36s.06-.36.18-.36c1.16 0 2.4-.46 3.72-1.38 1.36-.92 2.64-2.2 3.84-3.84l3.18-4.38-5.22-7.86c-.88-1.36-1.76-2.4-2.64-3.12-.88-.76-1.68-1.14-2.4-1.14-.08 0-.12-.12-.12-.36s.04-.36.12-.36c.84 0 1.46.02 1.86.06l1.86.06 4.02-.06c.64-.04 1.52-.06 2.64-.06.08 0 .12.12.12.36s-.04.36-.12.36c-1.04 0-1.56.28-1.56.84 0 .4.22.9.66 1.5l3.72 5.64 2.1-3.18c.92-1.36 1.38-2.4 1.38-3.12 0-1.12-.98-1.68-2.94-1.68-.08 0-.12-.12-.12-.36s.04-.36.12-.36c1.08 0 1.9.02 2.46.06l3.6.06 2.4-.06c.4-.04 1.08-.06 2.04-.06.12 0 .18.12.18.36s-.06.36-.18.36c-1.16 0-2.42.46-3.78 1.38-1.32.92-2.58 2.2-3.78 3.84l-2.82 3.78 5.64 8.46c.96 1.44 1.94 2.52 2.94 3.24 1 .68 1.88 1.02 2.64 1.02zm16.046 1.5a17.53 17.53 0 0 1-5.58-.9v11.76c0 1.2.14 2.08.42 2.64s.8.94 1.56 1.14c.76.24 1.96.36 3.6.36.08 0 .12.12.12.36s-.04.36-.12.36c-1.44 0-2.56-.02-3.36-.06l-4.68-.06-3.42.06c-.6.04-1.42.06-2.46.06-.12 0-.18-.12-.18-.36s.06-.36.18-.36c1 0 1.74-.12 2.22-.36.48-.2.8-.58.96-1.14.2-.56.3-1.44.3-2.64v-27.9c0-1.32-.16-2.28-.48-2.88-.28-.6-.78-.9-1.5-.9-.68 0-1.64.28-2.88.84h-.12c-.16 0-.28-.08-.36-.24-.08-.2-.08-.34 0-.42l7.92-3.78c.08-.04.2-.06.36-.06.44 0 .84.38 1.2 1.14.36.72.58 1.72.66 3 3.08-2.92 6.2-4.38 9.36-4.38a8.81 8.81 0 0 1 4.68 1.32c1.44.88 2.58 2.16 3.42 3.84.88 1.68 1.32 3.64 1.32 5.88 0 3.16-.68 5.76-2.04 7.8-1.32 2.04-2.98 3.54-4.98 4.5-2 .92-4.04 1.38-6.12 1.38zm.24-21.72c-2.04 0-3.98.86-5.82 2.58v.12V34.1c.96 1.04 1.96 1.84 3 2.4 1.08.56 2.38.84 3.9.84 2 0 3.58-.86 4.74-2.58 1.16-1.76 1.74-4.36 1.74-7.8 0-3.16-.72-5.6-2.16-7.32s-3.24-2.58-5.4-2.58zm37.603 17.16c.08 0 .16.08.24.24.12.16.14.28.06.36-1.48 1.36-2.96 2.36-4.44 3-1.48.6-3.08.9-4.8.9-2.44 0-4.56-.54-6.36-1.62-1.76-1.08-3.12-2.5-4.08-4.26a12.12 12.12 0 0 1-1.38-5.7c0-2.36.58-4.52 1.74-6.48s2.74-3.5 4.74-4.62c2.04-1.16 4.3-1.74 6.78-1.74 2.4 0 4.26.58 5.58 1.74s1.98 2.88 1.98 5.16c0 1.16-.24 1.74-.72 1.74l-14.64.06c-.04.36-.06.9-.06 1.62 0 3.52.8 6.32 2.4 8.4 1.64 2.04 3.96 3.06 6.96 3.06 1.12 0 2.06-.12 2.82-.36.76-.28 1.78-.76 3.06-1.44l.12-.06zm-9.66-18.72c-1.48 0-2.7.58-3.66 1.74-.92 1.12-1.54 2.68-1.86 4.68l9.6-.18c-.08-4.16-1.44-6.24-4.08-6.24zm29.283-1.26c.92 0 1.8.3 2.64.9s1.26 1.32 1.26 2.16c0 .76-.24 1.38-.72 1.86-.44.48-1.06.72-1.86.72-.52 0-.96-.1-1.32-.3-.32-.24-.66-.56-1.02-.96-.36-.36-.68-.62-.96-.78-.28-.2-.62-.3-1.02-.3-.44 0-.92.18-1.44.54-.48.32-1.24 1.02-2.28 2.1v12.96c0 1.12.16 1.98.48 2.58.32.56.86.96 1.62 1.2s1.88.36 3.36.36c.16 0 .24.12.24.36s-.08.36-.24.36c-1.32 0-2.38-.02-3.18-.06l-4.74-.06-3.48.06c-.56.04-1.34.06-2.34.06-.12 0-.18-.12-.18-.36s.06-.36.18-.36c1.36 0 2.26-.28 2.7-.84s.66-1.66.66-3.3V21.68c0-1.28-.16-2.22-.48-2.82-.28-.6-.76-.9-1.44-.9-.6 0-1.6.3-3 .9h-.06c-.16 0-.28-.1-.36-.3s-.06-.32.06-.36l7.86-3.84c.24-.08.38-.12.42-.12.4 0 .8.44 1.2 1.32.4.84.64 1.96.72 3.36 1.56-1.76 2.86-2.98 3.9-3.66s1.98-1.02 2.82-1.02zm13.141-6.3c-1.04 0-1.86-.28-2.46-.84-.56-.56-.84-1.36-.84-2.4 0-1 .28-1.76.84-2.28.6-.56 1.42-.84 2.46-.84 1 0 1.78.28 2.34.84.56.52.84 1.28.84 2.28 0 1.04-.28 1.84-.84 2.4-.52.56-1.3.84-2.34.84zM137.925 38c-.12 0-.18-.12-.18-.36s.06-.36.18-.36c1.36 0 2.26-.28 2.7-.84s.66-1.66.66-3.3V22.22c0-1.36-.14-2.34-.42-2.94a1.46 1.46 0 0 0-1.44-.96c-.6 0-1.38.24-2.34.72h-.06c-.16 0-.28-.1-.36-.3s-.06-.34.06-.42l8.64-4.02.18-.06c.16 0 .32.1.48.3.2.16.3.3.3.42v1.26c-.08 1.68-.12 3.66-.12 5.94v10.98c0 1.64.22 2.74.66 3.3.48.56 1.4.84 2.76.84.12 0 .18.12.18.36s-.06.36-.18.36c-1 0-1.8-.02-2.4-.06l-3.48-.06-3.48.06c-.56.04-1.34.06-2.34.06zm36.038-3.78c.08 0 .16.08.24.24.12.16.14.28.06.36-1.48 1.36-2.96 2.36-4.44 3-1.48.6-3.08.9-4.8.9-2.44 0-4.56-.54-6.36-1.62-1.76-1.08-3.12-2.5-4.08-4.26a12.12 12.12 0 0 1-1.38-5.7c0-2.36.58-4.52 1.74-6.48s2.74-3.5 4.74-4.62c2.04-1.16 4.3-1.74 6.78-1.74 2.4 0 4.26.58 5.58 1.74s1.98 2.88 1.98 5.16c0 1.16-.24 1.74-.72 1.74l-14.64.06c-.04.36-.06.9-.06 1.62 0 3.52.8 6.32 2.4 8.4 1.64 2.04 3.96 3.06 6.96 3.06 1.12 0 2.06-.12 2.82-.36.76-.28 1.78-.76 3.06-1.44l.12-.06zm-9.66-18.72c-1.48 0-2.7.58-3.66 1.74-.92 1.12-1.54 2.68-1.86 4.68l9.6-.18c-.08-4.16-1.44-6.24-4.08-6.24zm42.062 21.78c.12 0 .18.12.18.36s-.06.36-.18.36c-1 0-1.78-.02-2.34-.06l-3.48-.06-3.42.06c-.6.04-1.4.06-2.4.06-.12 0-.18-.12-.18-.36s.06-.36.18-.36c1.36 0 2.26-.28 2.7-.84s.66-1.66.66-3.3v-9c0-2.24-.42-3.88-1.26-4.92-.8-1.08-2.08-1.62-3.84-1.62-1.04 0-2.1.24-3.18.72s-2.06 1.12-2.94 1.92v12.9c0 1.64.22 2.74.66 3.3s1.34.84 2.7.84c.12 0 .18.12.18.36s-.06.36-.18.36c-1 0-1.78-.02-2.34-.06l-3.48-.06-3.48.06c-.56.04-1.34.06-2.34.06-.12 0-.18-.12-.18-.36s.06-.36.18-.36c1.36 0 2.26-.28 2.7-.84s.66-1.66.66-3.3V21.68c0-1.28-.16-2.22-.48-2.82-.28-.6-.76-.9-1.44-.9-.6 0-1.6.3-3 .9h-.06c-.16 0-.28-.1-.36-.3s-.06-.32.06-.36l7.86-3.84c.24-.08.38-.12.42-.12.4 0 .8.46 1.2 1.38.44.88.68 2.04.72 3.48 2.8-3.32 5.84-4.98 9.12-4.98 2.2 0 3.92.68 5.16 2.04 1.24 1.32 1.86 3.12 1.86 5.4v11.58c0 1.64.22 2.74.66 3.3s1.34.84 2.7.84zm15.146 1.44c-2.6 0-4.82-.56-6.66-1.68-1.8-1.16-3.14-2.64-4.02-4.44-.88-1.84-1.32-3.76-1.32-5.76 0-2.52.68-4.72 2.04-6.6 1.36-1.92 3.1-3.38 5.22-4.38 2.16-1.04 4.34-1.56 6.54-1.56 1.88 0 3.58.38 5.1 1.14s2.28 1.78 2.28 3.06c0 .68-.26 1.28-.78 1.8-.52.48-1.24.72-2.16.72-1.52 0-2.62-.9-3.3-2.7-.4-1-.82-1.7-1.26-2.1-.44-.44-1.14-.66-2.1-.66-1.88 0-3.38.86-4.5 2.58-1.08 1.68-1.62 3.94-1.62 6.78 0 3.32.76 6.02 2.28 8.1 1.56 2.04 3.98 3.06 7.26 3.06 1.12 0 2.12-.14 3-.42s1.84-.72 2.88-1.32h.06c.12 0 .22.06.3.18.12.12.14.22.06.3-1.48 1.32-2.94 2.3-4.38 2.94s-3.08.96-4.92.96zm33.604-4.5c.08 0 .16.08.24.24.12.16.14.28.06.36-1.48 1.36-2.96 2.36-4.44 3-1.48.6-3.08.9-4.8.9-2.44 0-4.56-.54-6.36-1.62-1.76-1.08-3.12-2.5-4.08-4.26a12.12 12.12 0 0 1-1.38-5.7c0-2.36.58-4.52 1.74-6.48s2.74-3.5 4.74-4.62c2.04-1.16 4.3-1.74 6.78-1.74 2.4 0 4.26.58 5.58 1.74s1.98 2.88 1.98 5.16c0 1.16-.24 1.74-.72 1.74l-14.64.06c-.04.36-.06.9-.06 1.62 0 3.52.8 6.32 2.4 8.4 1.64 2.04 3.96 3.06 6.96 3.06 1.12 0 2.06-.12 2.82-.36.76-.28 1.78-.76 3.06-1.44l.12-.06zm-9.66-18.72c-1.48 0-2.7.58-3.66 1.74-.92 1.12-1.54 2.68-1.86 4.68l9.6-.18c-.08-4.16-1.44-6.24-4.08-6.24z" fill="#4971ff"/></svg>
